X: 4444
T: Bonnie Glenfarclas
R: strathspey
M: 4/4
K: Gmajor
"G"g2 d>B G2 A>B|"Am"c>B c>A "D7"F<D F<A|"G"G2 B>d "Em"g>a b>g|"A7"e<a a>g "D7"fd ef|
y3 "G"g2 d>B "Em"G2 A>B|"Am"c>B c>A "D7"F<D E>F|"G"G2 B>d "Em"g>a b>g|"Am"e>a "D7"f<d "G"g2:|
g>a|"Em"b>a b<g "Bm"f2 b>f|"C"e2 g>e "G7"d>B G<B|"Am"c>d e>c "Bm"B<d "Em"f>g|"A"e<a a>g "D"f<d g>a|
y3 "Em"b>a b<g "B7"f2 b>f|"C"e2 "(C#dim)"g>e "G"d>B "(Em)"G<B|"Am"c>d e>c "Bm"B<d "Em"g<b|"Am"e>a "D7"f<d "G"g2:|

